X:1
T:Title
%%score [ ( 1 2 ) ( 3 4 ) ] { ( 5 6 ) | ( 7 8 ) }
L:1/8
Q:1/4=120
M:4/4
K:F
V:1 treble nm="Midi_74"
V:2 treble 
V:3 bass nm="Midi_74"
V:4 bass 
V:5 treble nm="Org."
V:6 treble 
V:7 bass 
V:8 bass 
V:1
 A8 | B4 c4 | F8 || c8 | d4 e4 | A4 =B4 | c8 || E8 | F4 G4 | C8 || F8 | %11
 G4"^William Henry Havergal\n(1793-1870)" A4 | D4 E4 | F8 |] %14
V:2
 F8 | F4 F4 | F8 || G8 | G4 G4 | F4 F4 | E8 || C8 | C4 C4 | C8 || F8 | E4 (F2 C2) | B,4 B,4 | %13
 A,8 |] %14
V:3
 C8 | F4 C4 | D8 || C8 | =B,4 C4 | D4 D4 | C8 || G,8 | F,4 C4 | A,8 || C8 | B,4 A,4 | B,4 G,4 | %13
 F,8 |] %14
V:4
 F,8 | D,4 A,,4 | D,8 || E,8 | D,4 C,4 | F,4 G,4 | C,8 || C,8 | A,,4 E,4 | A,8 || A,,8 | %11
 G,,4 F,,4 | B,,4 C,4 | F,,8 |] %14
V:5
 A8 | B4 c4 | F8 || c8 | d4 e4 | A4 =B4 | c8 || E8 | F4 G4 | C8 || F8 | G4 A4 | D4 E4 | F8 |] %14
V:6
 [CF]8 | F4 [CF]4 | [A,DF]8 || [CG]8 | [G=B]4 [Gc]4 | [DF]4 [DF]4 | [CE]8 || C8 | C4 C4 | [A,C]8 || %10
 [CF]8 | [CE]4 [CF]4 | B,4 B,4 | A,8 |] %14
V:7
 x8 | x8 | x8 || x8 | x8 | x8 | x8 || G,8 | A,4 G,4 | x8 || F,8 | x8 | x4 G,4 | F,8 |] %14
V:8
 F,8 | D,4 A,,4 | D,8 || E,8 | D,4 C,4 | F,4 G,4 | C,8 || C,8 | A,,4 E,4 | A,8 || A,,8 | %11
 G,,4 F,,4 | B,,4 C,4 | F,,8 |] %14

